X: 3
T: Caisleán An Óir
R: hornpipe
M: 4/4
L: 1/8
K: Ddor
A,DCE D2DG|ABBA d2de|dcAG EAGE|EDCA, C2A,G,|
A,DCE D2DG|ABBA dcde|dcAG EAGE|1EDDC D2DC:|2EDDC D3G||
Adde =f2ed|dcAB c2cA|dcAG EAGE|EDCA, C2A,G,|
A,DCE D2DG|ABBA d2de|dcAG EAGE|EDDC D3G|
Adde =f2ed|dcAB c2cA|dcAG EAGE|EDCA, C2A,G,|
A,DCE D2DG|ABBA dcde|dcAG EAGE|EDDC D2DC|


Tune 2170	Setting 15540

